app/assets/images/Contenido/Odin/Precios bajos.svg

<svg fill="none" height="144" viewBox="0 0 126 144" width="126" xmlns="http://www.w3.org/2000/svg"><path d="m108.619 121.022h-7.65v-57.4856c-2.7972.8184-5.7554 1.2591-8.8168 1.2591-2.5268 0-4.9829-.3009-7.3364-.8657.0003.0737.0028.1469.0028.2205 0 6.8606-1.6889 13.3257-4.6696 19.0064v37.8653h-7.65c-.8511 0-1.2879 1.02-.7003 1.636l18.0599 18.933c.3814.4 1.0192.4 1.4003 0l18.0601-18.933c.588-.616.151-1.636-.7-1.636z" fill="#fe646f"/><path d="m81.1781 122.658c-.5875-.616-.151-1.636.7003-1.636h4.8375c1.5533 0 2.8125-1.259 2.8125-2.812v-53.5256c-1.6082-.1339-3.1823-.3876-4.7126-.7546.0003.0737.0028.1468.0028.2205 0 6.8605-1.6889 13.3256-4.6696 19.0063v37.8654h-7.65c-.8511 0-1.2879 1.02-.7003 1.636l18.0599 18.933c.3814.399 1.0192.399 1.4003 0l3.9896-4.183z" fill="#fd4755"/><path d="m61.9118 121.022h-7.65v-17.241c-3.3244.871-6.8127 1.336-10.4099 1.336s-7.0858-.465-10.4099-1.336v17.241h-7.65c-.8511 0-1.2879 1.02-.7004 1.636l18.06 18.933c.3813.4 1.0192.4 1.4003 0l18.0599-18.933c.5875-.616.151-1.636-.7-1.636z" fill="#fe646f"/><path d="m34.4907 122.658c-.5875-.616-.151-1.636.7004-1.636h4.8375c1.5533 0 2.8125-1.259 2.8125-2.812v-13.109c-3.24-.079-6.3875-.531-9.3991-1.32v17.241h-7.65c-.8511 0-1.2879 1.02-.7004 1.636l18.06 18.933c.3813.4 1.0192.4 1.4003 0l3.9994-4.193z" fill="#fd4755"/><path d="m60.8091 33.4524c0-2.1605.2188-4.2702.635-6.3076-5.3305-2.5385-11.295-3.9611-17.5924-3.9611-22.6255 0-40.96693 18.3415-40.96693 40.9669 0 22.6255 18.34143 40.9664 40.96693 40.9664 22.6254 0 40.9668-18.3409 40.9668-40.9664 0-.0737-.0025-.1468-.0028-.2205-13.7708-3.303-24.0066-15.694-24.0066-30.4777z" fill="#fff0ad"/><path d="m61.494 39.9902c-4.9505-3.6248-11.0503-5.7688-17.6422-5.7688-16.5029 0-29.9289 13.4261-29.9289 29.929s13.426 29.9289 29.9289 29.9289 29.9289-13.426 29.9289-29.9289c0-1.9522-.1901-3.8607-.5487-5.7097-5.8885-4.4654-10.1492-10.9637-11.738-18.4505z" fill="#ffe177"/><path d="m25.7837 64.1506c0-14.4731 10.3267-26.5784 23.9985-29.3377-1.9175-.387-3.9006-.5912-5.9304-.5912-16.5029 0-29.9289 13.426-29.9289 29.9289s13.426 29.929 29.9289 29.929c2.0298 0 4.0129-.2042 5.9304-.5912-13.6718-2.7594-23.9985-14.8649-23.9985-29.3378z" fill="#ffd15b"/><path d="m92.1517 64.7955c17.3103 0 31.3433-14.0327 31.3433-31.343 0-17.3104-14.033-31.34312-31.3433-31.34312s-31.3431 14.03272-31.3431 31.34312c0 17.3103 14.0328 31.343 31.3431 31.343z" fill="#05e39c"/><path d="m75.0022 33.4525c0-14.8694 10.3545-27.32037 24.2463-30.53618-2.2804-.52791-4.6559-.80719-7.0968-.80719-17.3104 0-31.3431 14.03267-31.3431 31.34307s14.0327 31.3431 31.3431 31.3431c2.4407 0 4.8164-.2793 7.0968-.8072-13.8918-3.2153-24.2463-15.6662-24.2463-30.5356z" fill="#0ed290"/><path d="m81.7852 26.9733c2.6838 0 4.8595-2.1757 4.8595-4.8595s-2.1757-4.8594-4.8595-4.8594-4.8594 2.1756-4.8594 4.8594 2.1756 4.8595 4.8594 4.8595z" fill="#fff"/><path d="m102.519 49.6504c2.683 0 4.859-2.1756 4.859-4.8594s-2.176-4.8595-4.859-4.8595c-2.6842 0-4.8598 2.1757-4.8598 4.8595s2.1756 4.8594 4.8598 4.8594z" fill="#fff"/><g fill="#000"><path d="m47.4264 62.0409h-7.1485c-2.403 0-4.3583-1.9552-4.3583-4.3582s1.9553-4.3583 4.3583-4.3583h12.5949c1.165 0 2.1094-.9444 2.1094-2.1093 0-1.165-.9444-2.1094-2.1094-2.1094h-6.9111v-4.5284c0-1.165-.9445-2.1094-2.1094-2.1094s-2.1094.9444-2.1094 2.1094v4.5284h-1.4647c-4.7292 0-8.577 3.8478-8.577 8.577s3.8478 8.577 8.577 8.577h7.1485c2.403 0 4.3583 1.9552 4.3583 4.3582s-1.9553 4.3583-4.3583 4.3583h-12.5947c-1.1649 0-2.1093.9444-2.1093 2.1094 0 1.1649.9444 2.1093 2.1093 2.1093h6.9112v4.5287c0 1.165.9444 2.1094 2.1094 2.1094 1.1649 0 2.1094-.9444 2.1094-2.1094v-4.5287h1.4647c4.7292 0 8.577-3.8477 8.577-8.577 0-4.7292-3.8481-8.577-8.5773-8.577z"/><path d="m123.492 35.597c-1.153-.1556-2.217.6536-2.373 1.8081-1.947 14.4127-14.4 25.281-28.9669 25.281-16.1195 0-29.2337-13.1141-29.2337-29.2337 0-16.1195 13.1142-29.23365 29.2337-29.23365 14.1559 0 26.2539 10.09355 28.7659 23.99995.207 1.1463 1.306 1.9082 2.451 1.7007 1.146-.207 1.908-1.3045 1.701-2.4508-2.876-15.9163-16.72-27.4686-32.9179-27.4686-15.2437 0-28.1379 10.2493-32.1556 24.2184-4.9888-2.025-10.438-3.144-16.1448-3.144-23.7525 0-43.076309 19.3238-43.076309 43.0762 0 19.3995 12.891409 35.8428 30.556709 41.2184v13.544h-5.5406c-1.233 0-2.3434.732-2.8289 1.866-.4854 1.134-.2489 2.443.6022 3.335l18.0596 18.933c.578.606 1.3894.953 2.2267.953s1.649-.347 2.2266-.953l18.06-18.933c.851-.892 1.0873-2.201.6021-3.335-.4854-1.133-1.5955-1.866-2.8288-1.866h-5.5406v-13.543c8.7078-2.65 16.2534-7.99 21.6683-15.0477v28.5907h-5.5406c-1.233 0-2.3434.732-2.8288 1.866s-.2489 2.443.6024 3.335l18.0597 18.933c.5779.606 1.3893.953 2.2269.953.8373 0 1.6487-.347 2.2264-.953l18.0603-18.933c.851-.892 1.087-2.201.602-3.335-.485-1.133-1.596-1.866-2.829-1.866h-5.54v-22.163c0-1.1649-.945-2.1093-2.11-2.1093s-2.1092.9444-2.1092 2.1093v24.272c0 1.165.9442 2.11 2.1092 2.11h4.983l-15.3924 16.137-15.3931-16.137h4.9832c1.1652 0 2.1093-.945 2.1093-2.11v-37.3841c2.6494-5.2009 4.2742-11.0073 4.6041-17.1526 1.7235.275 3.49.4196 5.2898.4196 2.2691 0 4.5151-.2306 6.7072-.6784v20.6798c0 1.1649.9442 2.1094 2.1089 2.1094 1.166 0 2.11-.9445 2.11-2.1094v-21.8352c4.08-1.4093 7.881-3.6059 11.174-6.5067 6.05-5.3288 9.973-12.643 11.047-20.5948.157-1.1542-.653-2.2165-1.807-2.3726zm-69.2304 87.535h4.9832l-15.3931 16.137-15.3931-16.137h4.9831c1.165 0 2.1094-.945 2.1094-2.11v-14.601c2.6871.527 5.4616.806 8.3006.806 2.8389 0 5.6137-.279 8.3005-.806v14.601c0 1.165.9444 2.11 2.1094 2.11zm-10.4099-20.124c-21.4262 0-38.85756-17.4315-38.85756-38.8577s17.43136-38.8575 38.85756-38.8575c5.4025 0 10.5496 1.1104 15.2285 3.1121-.2503 1.6467-.3805 3.3322-.3805 5.0475 0 .7946.0298 1.5824.0846 2.3631-4.462-2.3614-9.5425-3.7035-14.9324-3.7035-17.6658 0-32.0383 14.3725-32.0383 32.0383 0 17.6659 14.3725 32.0384 32.0383 32.0384 6.3988 0 12.5809-1.8892 17.878-5.4636.9655-.6517 1.22-1.9629.5684-2.9284-.6514-.9658-1.9629-1.2203-2.9284-.5684-4.5973 3.1022-9.9633 4.7419-15.5182 4.7419-15.34 0-27.8196-12.4799-27.8196-27.8196 0-15.3396 12.4799-27.8196 27.8196-27.8196 5.85 0 11.282 1.8178 15.7666 4.9149 1.76 7.3479 5.9509 13.7601 11.6724 18.3372.2472 1.4867.3805 3.0116.3805 4.5675 0 6.1105-1.9533 11.9138-5.6486 16.7825-.7045.9278-.5231 2.2511.4047 2.9554.9279.7045 2.2514.5228 2.9554-.405 4.2573-5.6084 6.5073-12.2938 6.5073-19.3332 0-.5014-.0155-.9992-.0386-1.4951 2.1432 1.2009 4.4309 2.1727 6.8302 2.8823-.7332 20.786-17.8684 37.4705-38.8299 37.4705z"/><path d="m88.7538 22.1138c0-3.8427-3.1261-6.9688-6.9686-6.9688-3.8427 0-6.9688 3.1261-6.9688 6.9688 0 3.8428 3.1261 6.9689 6.9688 6.9689 3.8425 0 6.9686-3.1261 6.9686-6.9689zm-6.9686 2.7501c-1.5165 0-2.75-1.2336-2.75-2.7501s1.2338-2.75 2.75-2.75 2.7498 1.2335 2.7498 2.75-1.2336 2.7501-2.7498 2.7501z"/><path d="m102.519 51.7599c3.842 0 6.968-3.1261 6.968-6.9688s-3.126-6.9688-6.968-6.9688c-3.8431 0-6.9692 3.1261-6.9692 6.9688s3.1261 6.9688 6.9692 6.9688zm0-9.7189c1.516 0 2.749 1.2336 2.749 2.7501s-1.233 2.75-2.749 2.75c-1.517 0-2.7504-1.2335-2.7504-2.75s1.2334-2.7501 2.7504-2.7501z"/><path d="m83.4646 51.552c.2945.1412.605.2084.9113.2084.7858 0 1.5404-.4413 1.9032-1.197l15.5499-32.3961c.504-1.0502.061-2.3105-.989-2.8145-1.0497-.504-2.3105-.0615-2.8145.9889l-15.5498 32.3961c-.504 1.0502-.0613 2.3102.9889 2.8142z"/></g></svg>

<svg width="126" height="144" viewBox="0 0 126 144" fill="none" xmlns="http://www.w3.org/2000/svg">
<path d="M108.619 121.022H100.969V63.5364C98.1718 64.3548 95.2136 64.7955 92.1522 64.7955C89.6254 64.7955 87.1693 64.4946 84.8158 63.9298C84.8161 64.0035 84.8186 64.0767 84.8186 64.1503C84.8186 71.0109 83.1297 77.476 80.149 83.1567V121.022H72.499C71.6479 121.022 71.2111 122.042 71.7987 122.658L89.8586 141.591C90.24 141.991 90.8778 141.991 91.2589 141.591L109.319 122.658C109.907 122.042 109.47 121.022 108.619 121.022Z" fill="#FE646F"/>
<path d="M81.1781 122.658C80.5906 122.042 81.0271 121.022 81.8784 121.022H86.7159C88.2692 121.022 89.5284 119.763 89.5284 118.21V64.6844C87.9202 64.5505 86.3461 64.2968 84.8158 63.9298C84.8161 64.0035 84.8186 64.0766 84.8186 64.1503C84.8186 71.0108 83.1297 77.4759 80.149 83.1566V121.022H72.499C71.6479 121.022 71.2111 122.042 71.7987 122.658L89.8586 141.591C90.24 141.99 90.8778 141.99 91.2589 141.591L95.2485 137.408L81.1781 122.658Z" fill="#FD4755"/>
<path d="M61.9118 121.022H54.2618V103.781C50.9374 104.652 47.4491 105.117 43.8519 105.117C40.2547 105.117 36.7661 104.652 33.442 103.781V121.022H25.792C24.9409 121.022 24.5041 122.042 25.0916 122.658L43.1516 141.591C43.5329 141.991 44.1708 141.991 44.5519 141.591L62.6118 122.658C63.1993 122.042 62.7628 121.022 61.9118 121.022Z" fill="#FE646F"/>
<path d="M34.4907 122.658C33.9032 122.042 34.3397 121.022 35.1911 121.022H40.0286C41.5819 121.022 42.8411 119.763 42.8411 118.21V105.101C39.6011 105.022 36.4536 104.57 33.442 103.781V121.022H25.792C24.9409 121.022 24.5041 122.042 25.0916 122.658L43.1516 141.591C43.5329 141.991 44.1708 141.991 44.5519 141.591L48.5513 137.398L34.4907 122.658Z" fill="#FD4755"/>
<path d="M60.8091 33.4524C60.8091 31.2919 61.0279 29.1822 61.4441 27.1448C56.1136 24.6063 50.1491 23.1837 43.8517 23.1837C21.2262 23.1837 2.88477 41.5252 2.88477 64.1506C2.88477 86.7761 21.2262 105.117 43.8517 105.117C66.4771 105.117 84.8185 86.7761 84.8185 64.1506C84.8185 64.0769 84.816 64.0038 84.8157 63.9301C71.0449 60.6271 60.8091 48.2361 60.8091 33.4524Z" fill="#FFF0AD"/>
<path d="M61.494 39.9902C56.5435 36.3654 50.4437 34.2214 43.8518 34.2214C27.3489 34.2214 13.9229 47.6475 13.9229 64.1504C13.9229 80.6533 27.3489 94.0793 43.8518 94.0793C60.3547 94.0793 73.7807 80.6533 73.7807 64.1504C73.7807 62.1982 73.5906 60.2897 73.232 58.4407C67.3435 53.9753 63.0828 47.477 61.494 39.9902Z" fill="#FFE177"/>
<path d="M25.7837 64.1506C25.7837 49.6775 36.1104 37.5722 49.7822 34.8129C47.8647 34.4259 45.8816 34.2217 43.8518 34.2217C27.3489 34.2217 13.9229 47.6477 13.9229 64.1506C13.9229 80.6535 27.3489 94.0796 43.8518 94.0796C45.8816 94.0796 47.8647 93.8754 49.7822 93.4884C36.1104 90.729 25.7837 78.6235 25.7837 64.1506Z" fill="#FFD15B"/>
<path d="M92.1517 64.7955C109.462 64.7955 123.495 50.7628 123.495 33.4525C123.495 16.1421 109.462 2.10938 92.1517 2.10938C74.8414 2.10938 60.8086 16.1421 60.8086 33.4525C60.8086 50.7628 74.8414 64.7955 92.1517 64.7955Z" fill="#05E39C"/>
<path d="M75.0022 33.4525C75.0022 18.5831 85.3567 6.13213 99.2485 2.91632C96.9681 2.38841 94.5926 2.10913 92.1517 2.10913C74.8413 2.10913 60.8086 16.1418 60.8086 33.4522C60.8086 50.7626 74.8413 64.7953 92.1517 64.7953C94.5924 64.7953 96.9681 64.516 99.2485 63.9881C85.3567 60.7728 75.0022 48.3219 75.0022 33.4525Z" fill="#0ED290"/>
<path d="M81.7852 26.9733C84.469 26.9733 86.6447 24.7976 86.6447 22.1138C86.6447 19.43 84.469 17.2544 81.7852 17.2544C79.1014 17.2544 76.9258 19.43 76.9258 22.1138C76.9258 24.7976 79.1014 26.9733 81.7852 26.9733Z" fill="white"/>
<path d="M102.519 49.6504C105.202 49.6504 107.378 47.4748 107.378 44.791C107.378 42.1072 105.202 39.9315 102.519 39.9315C99.8348 39.9315 97.6592 42.1072 97.6592 44.791C97.6592 47.4748 99.8348 49.6504 102.519 49.6504Z" fill="white"/>
<path d="M47.4264 62.0409H40.2779C37.8749 62.0409 35.9196 60.0857 35.9196 57.6827C35.9196 55.2797 37.8749 53.3244 40.2779 53.3244H52.8728C54.0378 53.3244 54.9822 52.38 54.9822 51.2151C54.9822 50.0501 54.0378 49.1057 52.8728 49.1057H45.9617V44.5773C45.9617 43.4123 45.0172 42.4679 43.8523 42.4679C42.6874 42.4679 41.7429 43.4123 41.7429 44.5773V49.1057H40.2782C35.549 49.1057 31.7012 52.9535 31.7012 57.6827C31.7012 62.4119 35.549 66.2597 40.2782 66.2597H47.4267C49.8297 66.2597 51.785 68.2149 51.785 70.6179C51.785 73.0209 49.8297 74.9762 47.4267 74.9762H34.832C33.6671 74.9762 32.7227 75.9206 32.7227 77.0856C32.7227 78.2505 33.6671 79.1949 34.832 79.1949H41.7432V83.7236C41.7432 84.8886 42.6876 85.833 43.8526 85.833C45.0175 85.833 45.962 84.8886 45.962 83.7236V79.1949H47.4267C52.1559 79.1949 56.0037 75.3472 56.0037 70.6179C56.0037 65.8887 52.1556 62.0409 47.4264 62.0409Z" fill="black"/>
<path d="M123.492 35.597C122.339 35.4414 121.275 36.2506 121.119 37.4051C119.172 51.8178 106.719 62.6861 92.1521 62.6861C76.0326 62.6861 62.9184 49.572 62.9184 33.4524C62.9184 17.3329 76.0326 4.21875 92.1521 4.21875C106.308 4.21875 118.406 14.3123 120.918 28.2187C121.125 29.365 122.224 30.1269 123.369 29.9194C124.515 29.7124 125.277 28.6149 125.07 27.4686C122.194 11.5523 108.35 0 92.1521 0C76.9084 0 64.0142 10.2493 59.9965 24.2184C55.0077 22.1934 49.5585 21.0744 43.8517 21.0744C20.0992 21.0744 0.775391 40.3982 0.775391 64.1506C0.775391 83.5501 13.6668 99.9934 31.3321 105.369V118.913H25.7915C24.5585 118.913 23.4481 119.645 22.9626 120.779C22.4772 121.913 22.7137 123.222 23.5648 124.114L41.6244 143.047C42.2024 143.653 43.0138 144 43.8511 144C44.6884 144 45.5001 143.653 46.0777 143.047L64.1377 124.114C64.9887 123.222 65.225 121.913 64.7398 120.779C64.2544 119.646 63.1443 118.913 61.911 118.913H56.3704V105.37C65.0782 102.72 72.6238 97.38 78.0387 90.3223V118.913H72.4981C71.2651 118.913 70.1547 119.645 69.6693 120.779C69.1839 121.913 69.4204 123.222 70.2717 124.114L88.3314 143.047C88.9093 143.653 89.7207 144 90.5583 144C91.3956 144 92.207 143.653 92.7847 143.047L110.845 124.114C111.696 123.222 111.932 121.913 111.447 120.779C110.962 119.646 109.851 118.913 108.618 118.913H103.078V96.75C103.078 95.5851 102.133 94.6407 100.968 94.6407C99.803 94.6407 98.8588 95.5851 98.8588 96.75V121.022C98.8588 122.187 99.803 123.132 100.968 123.132H105.951L90.5586 139.269L75.1655 123.132H80.1487C81.3139 123.132 82.258 122.187 82.258 121.022V83.6379C84.9074 78.437 86.5322 72.6306 86.8621 66.4853C88.5856 66.7603 90.3521 66.9049 92.1519 66.9049C94.421 66.9049 96.667 66.6743 98.8591 66.2265V86.9063C98.8591 88.0712 99.8033 89.0157 100.968 89.0157C102.134 89.0157 103.078 88.0712 103.078 86.9063V65.0711C107.158 63.6618 110.959 61.4652 114.252 58.5644C120.302 53.2356 124.225 45.9214 125.299 37.9696C125.456 36.8154 124.646 35.7531 123.492 35.597ZM54.2616 123.132H59.2448L43.8517 139.269L28.4586 123.132H33.4417C34.6067 123.132 35.5511 122.187 35.5511 121.022V106.421C38.2382 106.948 41.0127 107.227 43.8517 107.227C46.6906 107.227 49.4654 106.948 52.1522 106.421V121.022C52.1522 122.187 53.0966 123.132 54.2616 123.132ZM43.8517 103.008C22.4255 103.008 4.99414 85.5765 4.99414 64.1503C4.99414 42.7241 22.4255 25.2928 43.8517 25.2928C49.2542 25.2928 54.4013 26.4032 59.0802 28.4049C58.8299 30.0516 58.6997 31.7371 58.6997 33.4524C58.6997 34.247 58.7295 35.0348 58.7843 35.8155C54.3223 33.4541 49.2418 32.112 43.8519 32.112C26.1861 32.112 11.8136 46.4845 11.8136 64.1503C11.8136 81.8162 26.1861 96.1887 43.8519 96.1887C50.2507 96.1887 56.4328 94.2995 61.7299 90.7251C62.6954 90.0734 62.9499 88.7622 62.2983 87.7967C61.6469 86.8309 60.3354 86.5764 59.3699 87.2283C54.7726 90.3305 49.4066 91.9702 43.8517 91.9702C28.5117 91.9702 16.0321 79.4903 16.0321 64.1506C16.0321 48.811 28.512 36.331 43.8517 36.331C49.7017 36.331 55.1337 38.1488 59.6183 41.2459C61.3783 48.5938 65.5692 55.006 71.2907 59.5831C71.5379 61.0698 71.6712 62.5947 71.6712 64.1506C71.6712 70.2611 69.7179 76.0644 66.0226 80.9331C65.3181 81.8609 65.4995 83.1842 66.4273 83.8885C67.3552 84.593 68.6787 84.4113 69.3827 83.4835C73.64 77.8751 75.89 71.1897 75.89 64.1503C75.89 63.6489 75.8745 63.1511 75.8514 62.6552C77.9946 63.8561 80.2823 64.8279 82.6816 65.5375C81.9484 86.3235 64.8132 103.008 43.8517 103.008Z" fill="black"/>
<path d="M88.7538 22.1138C88.7538 18.2711 85.6277 15.145 81.7852 15.145C77.9425 15.145 74.8164 18.2711 74.8164 22.1138C74.8164 25.9566 77.9425 29.0827 81.7852 29.0827C85.6277 29.0827 88.7538 25.9566 88.7538 22.1138ZM81.7852 24.8639C80.2687 24.8639 79.0352 23.6303 79.0352 22.1138C79.0352 20.5973 80.269 19.3638 81.7852 19.3638C83.3014 19.3638 84.535 20.5973 84.535 22.1138C84.535 23.6303 83.3014 24.8639 81.7852 24.8639Z" fill="black"/>
<path d="M102.519 51.7599C106.361 51.7599 109.487 48.6338 109.487 44.7911C109.487 40.9484 106.361 37.8223 102.519 37.8223C98.6759 37.8223 95.5498 40.9484 95.5498 44.7911C95.5498 48.6338 98.6759 51.7599 102.519 51.7599ZM102.519 42.041C104.035 42.041 105.268 43.2746 105.268 44.7911C105.268 46.3076 104.035 47.5411 102.519 47.5411C101.002 47.5411 99.7686 46.3076 99.7686 44.7911C99.7686 43.2746 101.002 42.041 102.519 42.041Z" fill="black"/>
<path d="M83.4646 51.552C83.7591 51.6932 84.0696 51.7604 84.3759 51.7604C85.1617 51.7604 85.9163 51.3191 86.2791 50.5634L101.829 18.1673C102.333 17.1171 101.89 15.8568 100.84 15.3528C99.7903 14.8488 98.5295 15.2913 98.0255 16.3417L82.4757 48.7378C81.9717 49.788 82.4144 51.048 83.4646 51.552Z" fill="black"/>
</svg>
